X:14
T:Christmas Waltz
C:Bob Massie
N:For my Ma & Da, Christmas 1997
M:3/4
L:1/8     %
Q:1/4=120     %Tempo
K:D
Ac d3 e |fd A2 F2 |D2 G3 A |BG E4 |
D2 C3 A, |CE c2 B2 |A2 F3 G |FD A,4 |
A3/4B/c3/4 d3 e |fd A2 F2 |D2 G3 A |BG E4 |
D2 C3 A, |CE c2 B2 |A2 d3 A |FA D4 |
ED C3 A, |CE c2 B2 |A2 D3 A, |DF B2 A2 |
F2 ^G3 E |^GB d2 B2 |d2 c3 d |cB A4 |
A3/4B/c3/4 d3 e |fd A2 F2 |D2 G3 A |BG E4 |
D2 C3 A, |CE c2 B2 |A2 d3 A |FA D4 |]
